src/static/logos/blossom.svg

<?xml version="1.0" encoding="UTF-8" standalone="no"?>
<svg width="256px" height="256px" viewBox="0 0 256 256" version="1.1" xmlns="http://www.w3.org/2000/svg" xmlns:xlink="http://www.w3.org/1999/xlink" preserveAspectRatio="xMidYMid">
	<g fill="#122941">
		<path d="M127.75619,62.6660136 C106.477424,81.9664399 93.9014966,117.873778 91.8024127,140.578249 C97.769941,145.26868 103.542422,150.58605 109.48673,156.748626 C110.926367,158.058231 119.661714,166.254875 127.765478,179.778177 C135.878531,166.259519 144.60459,158.058231 146.044227,156.748626 C151.988535,150.58605 157.756372,145.26868 163.7239,140.578249 C161.620172,117.869134 149.044245,81.9617959 127.75619,62.6660136"></path>
		<path d="M153.386376,164.076844 L153.093805,164.355483 C152.81981,164.601615 126.154014,188.852535 123.674122,225.098884 C143.443592,223.752127 164.513379,216.233506 166.94683,215.341859 C212.086422,192.818503 221.806295,154.370902 221.216508,123.82273 C190.552236,133.18966 172.895782,143.796535 153.386376,164.076844"></path>
		<path d="M121.969778,190.789079 C113.452698,174.321488 102.613624,164.518023 102.437152,164.355483 L102.14458,164.076844 C82.6351746,143.796535 64.9740771,133.18966 34.314449,123.82273 C33.7200181,154.370902 43.4445351,192.818503 88.579483,215.341859 C90.2466757,215.950222 100.700299,219.688635 113.480562,222.410014 C114.539392,210.479601 117.845914,199.849506 121.969778,190.789079"></path>
		<path d="M127.765478,19.0496508 C67.5561361,19.0496508 18.5759637,68.0298231 18.5759637,128.234522 C18.5759637,188.443864 67.5561361,237.424036 127.765478,237.424036 C187.970177,237.424036 236.950349,188.443864 236.950349,128.234522 C236.950349,68.0298231 187.970177,19.0496508 127.765478,19.0496508 L127.765478,19.0496508 L127.765478,19.0496508 Z M127.765478,256 C57.3161361,256 0,198.683864 0,128.234522 C0,57.7851791 57.3161361,0.473687075 127.765478,0.473687075 C198.214821,0.473687075 255.526313,57.7851791 255.526313,128.234522 C255.526313,198.683864 198.214821,256 127.765478,256 L127.765478,256 L127.765478,256 Z"></path>
	</g>
</svg>

<svg width="256" height="256" xmlns="http://www.w3.org/2000/svg" preserveAspectRatio="xMidYMid"><g fill="#122941"><path d="M127.756 62.666c-21.279 19.3-33.855 55.208-35.954 77.912 5.968 4.69 11.74 10.008 17.685 16.17 1.44 1.31 10.175 9.507 18.278 23.03 8.114-13.518 16.84-21.72 18.28-23.03 5.944-6.162 11.711-11.48 17.679-16.17-2.104-22.709-14.68-58.616-35.968-77.912m25.63 101.411l-.292.278c-.274.247-26.94 24.498-29.42 60.744 19.77-1.347 40.84-8.865 43.273-9.757 45.14-22.523 54.86-60.971 54.27-91.52-30.665 9.368-48.321 19.975-67.83 40.255M121.97 190.79c-8.517-16.469-19.356-26.272-19.533-26.435l-.292-.278c-19.51-20.28-37.17-30.887-67.83-40.254-.595 30.548 9.13 68.996 54.264 91.519 1.668.608 12.121 4.347 24.902 7.068 1.058-11.93 4.365-22.56 8.489-31.62"/><path d="M127.765 19.05c-60.209 0-109.189 48.98-109.189 109.185 0 60.209 48.98 109.189 109.19 109.189 60.204 0 109.184-48.98 109.184-109.19 0-60.204-48.98-109.184-109.185-109.184zm0 236.95C57.316 256 0 198.684 0 128.235 0 57.785 57.316.474 127.765.474c70.45 0 127.761 57.311 127.761 127.76 0 70.45-57.311 127.766-127.76 127.766z"/></g></svg>
